static/images/icons/usability_test.svg

<svg fill="none" height="80" viewBox="0 0 80 80" width="80" xmlns="http://www.w3.org/2000/svg"><path clip-rule="evenodd" d="m6.428 0h67.1452c3.467 0 6.3011 2.75995 6.4227 6.19783l.0041.23017v52.9154c0 3.4682-2.7588 6.3023-6.1966 6.4239l-.2302.0041h-22.8892l2.3539 6.8618h1.1226c1.7018 0 3.0972 1.3378 3.1914 3.0177l.0051.1813v.9713c0 1.7019-1.3367 3.0972-3.0154 3.1914l-.1811.0051h-28.3197c-1.7019 0-3.0984-1.3367-3.1927-3.0154l-.0051-.1811v-.9713c0-1.7031 1.3379-3.0997 3.0166-3.194l.1812-.005h1.1226l2.3526-6.8618h-22.888c-3.46698 0-6.302298-2.7588-6.42393401-6.1978l-.00406599-.2302v-52.9154c0-3.46698 2.75995-6.302298 6.19783-6.42393401l.23017-.00406599h67.1452zm47.7325 75.1446h-28.3197c-.3387 0-.6288.2593-.6787.5873l-.0076.1003v.9713c0 .3387.2593.6288.5863.6787l.1.0076h28.3197c.3386 0 .6287-.2593.6787-.5863l.0076-.1v-.9713c0-.3738-.3138-.6876-.6863-.6876zm-6.1292-9.3732h-16.0613l-2.3527 6.8618h20.7666zm29.461-7.9569h-74.98335v1.5289c0 2.0951 1.6495 3.81 3.71764 3.9152l.20141.0051h67.1452c2.0927 0 3.8088-1.6495 3.914-3.7188l.0051-.2015zm-36.1503 1.4689c.6913 0 1.2538.5638 1.2538 1.2551s-.5625 1.2551-1.2538 1.2551h-2.6327c-.6913 0-1.2539-.5638-1.2539-1.2551s.5626-1.2551 1.2539-1.2551zm36.1503-48.8201h-74.98335v44.8435h74.98335zm-51.1952 7.2393 26.8758 10.6309c.4563.1812.7651.61.7888 1.1013.0238.49-.2413.9488-.6775 1.1726l-6.398 3.2877 8.2119 8.2057c.4812.48.49 1.2576.0187 1.7489l-4.0941 4.2703c-.2312.2425-.5513.3813-.8875.385h-.0138c-.3313 0-.6488-.1312-.8826-.365l-8.3006-8.2719-3.2603 6.4068c-.2225.4375-.675.7188-1.1713.6825-.49-.0225-.9213-.33-1.1038-.785l-10.7259-26.8434c-.185-.4638-.0775-.9926.2751-1.3463.3525-.3526.8825-.4651 1.3451-.2801zm1.7776 3.3915 8.6257 21.5892 2.7889-5.4804c.1813-.3563.5226-.6063.9176-.6675l.1975-.0163c.3275 0 .6463.1288.8826.365l8.6144 8.5857 2.3627-2.4677-8.5594-8.5507c-.2825-.2825-.4126-.6825-.3513-1.0775.0625-.3951.3088-.7363.6638-.9189l5.4717-2.8114zm45.4985-18.5864h-67.1452c-2.09387 0-3.80881 1.65067-3.91395 3.71889l-.0051.20141v1.52762h74.98335v-1.52762c0-2.16142-1.7589-3.9203-3.9191-3.9203z" fill="currentColor" fill-rule="evenodd"/></svg>

<svg width="80" height="80" viewBox="0 0 80 80" fill="none" xmlns="http://www.w3.org/2000/svg">
<path fill-rule="evenodd" clip-rule="evenodd" d="M6.428 0H73.5732C77.0402 0 79.8743 2.75995 79.9959 6.19783L80 6.428V59.3434C80 62.8116 77.2412 65.6457 73.8034 65.7673L73.5732 65.7714H50.684L53.0379 72.6332H54.1605C55.8623 72.6332 57.2577 73.971 57.3519 75.6509L57.357 75.8322V76.8035C57.357 78.5054 56.0203 79.9007 54.3416 79.9949L54.1605 80H25.8408C24.1389 80 22.7424 78.6633 22.6481 76.9846L22.643 76.8035V75.8322C22.643 74.1291 23.9809 72.7325 25.6596 72.6382L25.8408 72.6332H26.9634L29.316 65.7714H6.428C2.96102 65.7714 0.125702 63.0126 0.00406599 59.5736L0 59.3434V6.428C0 2.96102 2.75995 0.125702 6.19783 0.00406599L6.428 0H73.5732H6.428ZM54.1605 75.1446H25.8408C25.5021 75.1446 25.212 75.4039 25.1621 75.7319L25.1545 75.8322V76.8035C25.1545 77.1422 25.4138 77.4323 25.7408 77.4822L25.8408 77.4898H54.1605C54.4991 77.4898 54.7892 77.2305 54.8392 76.9035L54.8468 76.8035V75.8322C54.8468 75.4584 54.533 75.1446 54.1605 75.1446ZM48.0313 65.7714H31.97L29.6173 72.6332H50.3839L48.0313 65.7714ZM77.4923 57.8145H2.50895V59.3434C2.50895 61.4385 4.15845 63.1534 6.22659 63.2586L6.428 63.2637H73.5732C75.6659 63.2637 77.382 61.6142 77.4872 59.5449L77.4923 59.3434V57.8145ZM41.342 59.2834C42.0333 59.2834 42.5958 59.8472 42.5958 60.5385C42.5958 61.2298 42.0333 61.7936 41.342 61.7936H38.7093C38.018 61.7936 37.4554 61.2298 37.4554 60.5385C37.4554 59.8472 38.018 59.2834 38.7093 59.2834H41.342ZM77.4923 10.4633H2.50895V55.3068H77.4923V10.4633ZM26.2971 17.7026L53.1729 28.3335C53.6292 28.5147 53.938 28.9435 53.9617 29.4348C53.9855 29.9248 53.7204 30.3836 53.2842 30.6074L46.8862 33.8951L55.0981 42.1008C55.5793 42.5808 55.5881 43.3584 55.1168 43.8497L51.0227 48.12C50.7915 48.3625 50.4714 48.5013 50.1352 48.505H50.1214C49.7901 48.505 49.4726 48.3738 49.2388 48.14L40.9382 39.8681L37.6779 46.2749C37.4554 46.7124 37.0029 46.9937 36.5066 46.9574C36.0166 46.9349 35.5853 46.6274 35.4028 46.1724L24.6769 19.329C24.4919 18.8652 24.5994 18.3364 24.952 17.9827C25.3045 17.6301 25.8345 17.5176 26.2971 17.7026ZM28.0747 21.0941L36.7004 42.6833L39.4893 37.2029C39.6706 36.8466 40.0119 36.5966 40.4069 36.5354L40.6044 36.5191C40.9319 36.5191 41.2507 36.6479 41.487 36.8841L50.1014 45.4698L52.4641 43.0021L43.9047 34.4514C43.6222 34.1689 43.4921 33.7689 43.5534 33.3739C43.6159 32.9788 43.8622 32.6376 44.2172 32.455L49.6889 29.6436L28.0747 21.0941ZM73.5732 2.5077H6.428C4.33413 2.5077 2.61919 4.15837 2.51405 6.22659L2.50895 6.428V7.95562H77.4923V6.428C77.4923 4.26658 75.7334 2.5077 73.5732 2.5077Z" fill="currentColor"/>
</svg>
